svg/aws-ec2-r5d.svg

<?xml version="1.0" encoding="UTF-8"?>
<svg xmlns="http://www.w3.org/2000/svg" xmlns:xlink="http://www.w3.org/1999/xlink" width="32" height="32" viewBox="0 0 32 32">
<path fill-rule="evenodd" fill="rgb(83.137255%, 35.686275%, 2.745098%)" fill-opacity="1" d="M 6 26 L 26 26 L 26 6 L 6 6 Z M 30.667969 8.667969 L 30.667969 7.332031 L 27.332031 7.332031 L 27.332031 5.332031 C 27.332031 4.964844 27.035156 4.667969 26.667969 4.667969 L 24.667969 4.667969 L 24.667969 1.332031 L 23.332031 1.332031 L 23.332031 4.667969 L 20.667969 4.667969 L 20.667969 1.332031 L 19.332031 1.332031 L 19.332031 4.667969 L 16.667969 4.667969 L 16.667969 1.332031 L 15.332031 1.332031 L 15.332031 4.667969 L 12.667969 4.667969 L 12.667969 1.332031 L 11.332031 1.332031 L 11.332031 4.667969 L 8.667969 4.667969 L 8.667969 1.332031 L 7.332031 1.332031 L 7.332031 4.667969 L 5.332031 4.667969 C 4.964844 4.667969 4.667969 4.964844 4.667969 5.332031 L 4.667969 7.332031 L 1.332031 7.332031 L 1.332031 8.667969 L 4.667969 8.667969 L 4.667969 11.332031 L 1.332031 11.332031 L 1.332031 12.667969 L 4.667969 12.667969 L 4.667969 15.332031 L 1.332031 15.332031 L 1.332031 16.667969 L 4.667969 16.667969 L 4.667969 19.332031 L 1.332031 19.332031 L 1.332031 20.667969 L 4.667969 20.667969 L 4.667969 23.332031 L 1.332031 23.332031 L 1.332031 24.667969 L 4.667969 24.667969 L 4.667969 26.667969 C 4.667969 27.035156 4.964844 27.332031 5.332031 27.332031 L 7.332031 27.332031 L 7.332031 30.667969 L 8.667969 30.667969 L 8.667969 27.332031 L 11.332031 27.332031 L 11.332031 30.667969 L 12.667969 30.667969 L 12.667969 27.332031 L 15.332031 27.332031 L 15.332031 30.667969 L 16.667969 30.667969 L 16.667969 27.332031 L 19.332031 27.332031 L 19.332031 30.667969 L 20.667969 30.667969 L 20.667969 27.332031 L 23.332031 27.332031 L 23.332031 30.667969 L 24.667969 30.667969 L 24.667969 27.332031 L 26.667969 27.332031 C 27.035156 27.332031 27.332031 27.035156 27.332031 26.667969 L 27.332031 24.667969 L 30.667969 24.667969 L 30.667969 23.332031 L 27.332031 23.332031 L 27.332031 20.667969 L 30.667969 20.667969 L 30.667969 19.332031 L 27.332031 19.332031 L 27.332031 16.667969 L 30.667969 16.667969 L 30.667969 15.332031 L 27.332031 15.332031 L 27.332031 12.667969 L 30.667969 12.667969 L 30.667969 11.332031 L 27.332031 11.332031 L 27.332031 8.667969 Z M 20.449219 15.527344 C 20.648438 15.261719 20.953125 15.128906 21.371094 15.128906 C 21.757812 15.128906 22.105469 15.242188 22.425781 15.464844 L 22.425781 18.03125 C 22.074219 18.269531 21.71875 18.386719 21.351562 18.386719 C 20.554688 18.386719 20.15625 17.839844 20.15625 16.746094 C 20.15625 16.199219 20.253906 15.792969 20.449219 15.527344 M 21.007812 19.253906 C 21.558594 19.253906 22.046875 19.066406 22.472656 18.695312 L 22.582031 19.152344 L 23.527344 19.152344 L 23.527344 12.246094 L 22.425781 12.246094 L 22.425781 14.746094 C 22.039062 14.433594 21.558594 14.261719 21.0625 14.261719 C 20.644531 14.261719 20.285156 14.371094 19.980469 14.585938 C 19.675781 14.796875 19.441406 15.097656 19.28125 15.476562 C 19.117188 15.855469 19.035156 16.292969 19.035156 16.792969 C 19.035156 17.542969 19.214844 18.144531 19.574219 18.589844 C 19.929688 19.03125 20.410156 19.253906 21.007812 19.253906 M 15.714844 19.292969 C 15.097656 19.296875 14.488281 19.167969 13.921875 18.917969 L 13.921875 18.042969 C 14.601562 18.273438 15.191406 18.386719 15.683594 18.386719 C 16.605469 18.386719 17.066406 17.988281 17.066406 17.191406 C 17.066406 16.808594 16.953125 16.523438 16.71875 16.347656 C 16.488281 16.171875 16.117188 16.082031 15.613281 16.082031 C 15.234375 16.082031 14.761719 16.113281 14.191406 16.175781 L 14.191406 15.464844 L 14.371094 12.683594 L 17.878906 12.683594 L 17.878906 13.570312 L 15.410156 13.570312 L 15.304688 15.296875 C 15.558594 15.246094 15.828125 15.222656 16.113281 15.222656 C 16.761719 15.222656 17.269531 15.394531 17.640625 15.746094 C 18.011719 16.09375 18.195312 16.570312 18.195312 17.175781 C 18.195312 17.820312 17.972656 18.335938 17.523438 18.71875 C 17.078125 19.101562 16.472656 19.292969 15.714844 19.292969 M 9.609375 13.5625 L 10.769531 13.5625 C 11.476562 13.5625 11.832031 13.921875 11.832031 14.636719 C 11.832031 15.351562 11.46875 15.707031 10.742188 15.707031 L 9.609375 15.707031 Z M 9.609375 16.585938 L 10.75 16.585938 L 12.261719 19.152344 L 13.398438 19.152344 L 11.730469 16.390625 C 12.140625 16.226562 12.453125 15.992188 12.667969 15.691406 C 12.882812 15.382812 12.988281 15.019531 12.988281 14.597656 C 12.988281 14.011719 12.796875 13.546875 12.414062 13.203125 C 12.03125 12.855469 11.523438 12.679688 10.886719 12.683594 L 8.472656 12.683594 L 8.472656 19.152344 L 9.609375 19.152344 Z M 9.609375 16.585938 "/>
</svg>

<svg role="img" viewBox="0 0 32 32" xmlns="http://www.w3.org/2000/svg"><path d="M6 26h20V6H6ZM30.668 8.668V7.332h-3.336v-2a.664.664 0 0 0-.664-.664h-2V1.332h-1.336v3.336h-2.664V1.332h-1.336v3.336h-2.664V1.332h-1.336v3.336h-2.664V1.332h-1.336v3.336H8.668V1.332H7.332v3.336h-2a.664.664 0 0 0-.664.664v2H1.332v1.336h3.336v2.664H1.332v1.336h3.336v2.664H1.332v1.336h3.336v2.664H1.332v1.336h3.336v2.664H1.332v1.336h3.336v2c0 .367.297.664.664.664h2v3.336h1.336v-3.336h2.664v3.336h1.336v-3.336h2.664v3.336h1.336v-3.336h2.664v3.336h1.336v-3.336h2.664v3.336h1.336v-3.336h2a.664.664 0 0 0 .664-.664v-2h3.336v-1.336h-3.336v-2.664h3.336v-1.336h-3.336v-2.664h3.336v-1.336h-3.336v-2.664h3.336v-1.336h-3.336V8.668Zm-10.219 6.86c.2-.266.504-.4.922-.4.387 0 .734.114 1.055.337v2.566c-.352.239-.707.356-1.074.356q-1.196 0-1.196-1.64 0-.822.293-1.22m.559 3.726q.826.002 1.465-.559l.109.457h.945v-6.906h-1.101v2.5a2.17 2.17 0 0 0-1.363-.484q-.626.002-1.083.324c-.304.21-.539.512-.699.89q-.246.569-.246 1.317c0 .75.18 1.352.54 1.797q.534.663 1.433.664m-5.293.039a4.4 4.4 0 0 1-1.793-.375v-.875c.68.23 1.27.344 1.762.344q1.382 0 1.382-1.196c0-.382-.113-.668-.347-.843-.23-.176-.602-.266-1.106-.266q-.567 0-1.422.094v-.711l.18-2.781h3.508v.886H15.41l-.105 1.727q.38-.072.808-.074.973 0 1.528.523.554.522.554 1.43.002.967-.672 1.543-.67.574-1.808.574m-6.106-5.73h1.16q1.063 0 1.063 1.074 0 1.071-1.09 1.07H9.61Zm0 3.023h1.141l1.512 2.566h1.136L11.73 16.39q.615-.244.938-.7.321-.458.32-1.093 0-.879-.574-1.395-.573-.521-1.527-.52H8.473v6.47h1.136Zm0 0" fill="rgb(83.137256%, 35.686275%, 2.745098%)" fill-rule="evenodd"/></svg>
